!!!OTL: Das Schwabentoechterlein.
!!!OTL-incipit: Es hat ein Schwab' ein Toechterlein,
!!!ARE: Europa, Mitteleuropa, Deutschland (), Sachsen - Anhalt
!!!YOR: 4, S. 52
!!    ????
!!!SCT: Q0073M
!!!TXL: @@DE
!!!YEM: Copyright 1995, estate of Helmut Schaffrath.
**kern	**text
*ICvox	*
*M6/8	*
*k[f#]	*
*G:	*
!LO:TX:a:t=25 Sachſen-Anhalt	!
{8d	Es
=1	=1
4g	hat
8g	ein
4f#	Schwab'
8f#	ein
=2	=2
4g	Töchterlein,
8B	.
4c}	.
{8c	die
=3	=3
4B	woll-
8c	-te
4e	nicht
8e	mehr
=4	=4
(4e	die-
8d)	.
4d}	-nen,
{8g	die
=5	=5
4g	wollte
8b	.
4cc	Hut
8g	und
=6	=6
4f#	Man-
8a	-tel
4b}	hab'n
{8g	und
=7	=7
4f#	ein
8g	Paar
4a	Schuh'
8g	mit
=8	=8
(4b	Schnü-
8a)	.
4g}	-ren.
{8g	die
=9	=9
4g	wollte
8b	.
4cc	Hut
8g	und
=10	=10
4f#	Man-
8a	-tel
4b}	hab'n
{8g	und
=11	=11
4f#	ein
8g	Paar
4a	Schuh'
8g	mit
=12	=12
(4b	Schnü-
8a)	.
4g}	-ren.
==	==
!!!AGN: Ballade, Weglaufen, Schwangerschaft, Rueckkehr
!!!ONB: ESAC (Essen Associative Code) Database: BALLADE
!!!AMT: compound duple
!!!AIN: vox
!!!EED: Helmut Schaffrath
!!!EEV: 1.0
!!!source: Deutsche Volkslieder mit ihren Melodien. Herausgegeben vom Deutschen Volksliedarchiv. Vierter Band. Berlin 1959.
!!!page: 52
!!!ENC: Anna Maria Matuszewska
!!!EEV: 2025/02/21
*-	*-
